X:1
T:Title
%%score { ( 1 3 5 ) | ( 2 4 ) }
L:1/8
M:4/4
K:Db
V:1 treble nm="Grand Piano"
V:3 treble 
V:5 treble 
V:2 bass 
V:4 bass 
V:1
 z4 z2[Q:1/4=110] A2 | d3 c B3 A | G2 F2 E2 FG | A2 A2 A2 C2 |[M:5/8] D2 D2 D | %5
[M:3/8] F[EG][_F=G] |[M:4/4] [FA]2 [FB]2 [FA]2 [FB]2 | [FA]2 [FA]2 z [DF][EG][_F=G] | %8
 [FA]2 [FB]2 [FA]2 [_CF]2 | [CG]4- [CG][DF][CE][DF] | [EG]2 [FA]2 [GB]2 [Gc]2 | %11
 [CGB]2 [CGB]2 z [_C=D][=CE][_DF] | [EG]2 [FA]2 [GB]2 [CGc]2 | %13
 A2 [Adfa]2 [Adfa][A,DF][A,EG][B,_F=G] | [FA]2 [FB]2 [FA]2 [FB]2 | [FA]2 [FA]2 z [DF][EG][_F=G] | %16
 [FA]2 [FB]2 [FA]2 [FB]2 | c2 c'2 c'cBc | d2 d2 c2 [EB]2 | [Ee]2 [Ee]2- [Ee][Ec][EA]E | %20
 F2 [Fd]2 [Ec]2 [DB]2 |[M:5/8] [A,CA]- [A,CA]3 z |[M:3/8] ABc |[M:4/4] [Fd]2 [Fc]2 [FB]2 [FA]2 | %24
 [DF]2 z2 z A[=GB][_Gc] | [Fd]2 [Fc]2 [FB]2 [_CF]2 | z2 A,2 A,[CA][EAc][EBd] | %27
 [Ece]2 [EBd]2 [EAc]2 [EGB]2 | [EBd]2 [EAc]2 z [EGB][EAc][EBd] | [EAc]2 [CGB]2 [DFA]2 [EG]2 | %30
 A,4 A,ABc | [Fd]2 [Fc]2 [FB]2 [FA]2 | [DF]2 z2 A,2 [=GB]c | [Fd]2 [Gc]2 [Ad]2 [A=d]2 | %34
 e2- [B,e]2 BB=AB | d2 d2 c2 B2 | %36
 B2 A2 d2 d2[Q:1/4=108][Q:1/4=107][Q:1/4=105][Q:1/4=103][Q:1/4=101][Q:1/4=100][Q:1/4=98][Q:1/4=96][Q:1/4=95][Q:1/4=93][Q:1/4=91][Q:1/4=89][Q:1/4=88][Q:1/4=86][Q:1/4=84] | %37
 f4 [Ge]4 |[M:3/4] [Fd]6 |] %39
V:2
 z4 z2 A,2 | D3 C B,3 A, | G,2 F,2 E,2 F,G, | A,2 [G,CE]2 [F,D]2 [E,G,A,]2 | %4
[M:5/8] [D,F,A,]2 [D,F,A,]2 [D,F,A,] |[M:3/8] [D,A,D][D,A,][D,B,] | %6
[M:4/4] [D,D]2 [D,D]2 [D,D]2 [D,D]2 | [D,D]2 [D,D]2 z [D,A,][D,A,][D,B,] | %8
 [D,D]2 [D,D]2 [D,D]2 [=D,A,]2 | [E,A,]4- [E,A,][A,,A,][A,,A,][A,,A,] | %10
 [A,,A,]2 [A,,A,]2 [A,,A,]2 [A,,A,]2 | A,,2 A,,2 z [A,,A,][A,,A,][A,,A,] | %12
 [A,,A,]2 [A,,A,]2 [A,,A,]2 A,,2 | D,4 z4 | [D,D]2 [D,D]2 [D,D]2 [D,D]2 | %15
 [D,D]2 [D,D]2 z [D,A,][D,A,][D,B,] | [D,D]2 [D,D]2 [D,D]2 [D,A,]2 | %17
 z2[K:treble] [cea]2 [cea][K:bass][E,A,E][E,=G,E][E,A,E] | [E,B,E]2 [E,B,E]2 [E,A,E]2 [D,=G,]2 | %19
 [C,A,]2 [C,A,]2- [C,A,][A,,A,][C,A,][C,A,] | [D,A,D]2 [D,A,]2 [E,A,]2 [E,=G,]2 | %21
[M:5/8] z2 E,2 A,, |[M:3/8] A,[K:treble][A,=G][A,_G] | %23
[M:4/4][K:bass] [D,A,]2 [A,,A,]2 [D,A,]2 [A,,A,]2 | [D,A,]2 [A,,A,]2 D,2 [A,,A,]2 | %25
 [D,A,]2 [A,,A,]2 [D,A,]2 [=D,A,]2 | [E,A,]2 A,,2 E,A,A,A, | A,2 A,2 A,2 A,2 | A,2 A,2 z A,A,A, | %29
 A,2 A,2 A,2 A,2 | D,4 D,A,[K:treble][A,=G][A,_G] | [D,A,]2 [A,,A,]2 [D,A,]2 [A,,A,]2 | %32
 [D,A,]2 [A,,A,]2 z[K:treble] A z G | [D,A,]2 [E,A,]2 [F,D]2 [F,B,]2 | %34
 [G,B,]2 G,2 [G,D][K:treble][G,DG][G,DG][G,DG] | [=G,B,_F]2 [G,B,F]2 [G,B,F]2 [G,DF]2 | %36
 [A,DF]2 [_CDF]2 [B,DG]2 [=A,D=G]2 | [A,DA]4[K:bass] [A,,A,]4 |[M:3/4] [D,A,]6 |] %39
V:3
 x8 | x8 | x8 | x8 |[M:5/8] x5 |[M:3/8] x3 |[M:4/4] x8 | x8 | x8 | x8 | x8 | x8 | x8 | [DF]4 z4 | %14
 x8 | x8 | x8 | x8 | x8 | x8 | x8 |[M:5/8] x5 |[M:3/8] x3 |[M:4/4] x8 | z2 [DF]4 z2 | x8 | %26
 [CG]6 z2 | x8 | x8 | x8 | [DF]6 z2 | x8 | z2 [DF]4 z2 | x8 | G6 z2 | x8 | x8 | x8 |[M:3/4] x6 |] %39
V:4
 x8 | x8 | x8 | x8 |[M:5/8] x5 |[M:3/8] x3 |[M:4/4] x8 | x8 | x8 | x8 | x8 | x8 | x8 | %13
 z2 A,,2 D,,D,D,D, | x8 | x8 | x8 | [E,A,E]4[K:treble] z4[K:bass] | x8 | x8 | x8 | %21
[M:5/8] A,,- A,,3 z |[M:3/8] x[K:treble] x2 |[M:4/4][K:bass] x8 | x8 | x8 | x8 | x8 | x8 | x8 | %30
 x6[K:treble] x2 | x8 | z4 D,2[K:treble] A,2 | x8 | x5[K:treble] x3 | x8 | x8 | x4[K:bass] x4 | %38
[M:3/4] x6 |] %39
V:5
 x8 | x8 | x8 | x8 |[M:5/8] x5 |[M:3/8] x3 |[M:4/4] x8 | x8 | x8 | x8 | x8 | x8 | x8 | x8 | x8 | %15
 x8 | x8 | x8 | x8 | x8 | x8 |[M:5/8] x5 |[M:3/8] x3 |[M:4/4] x8 | z4 A,2 z2 | x8 | x8 | x8 | x8 | %29
 x8 | x8 | x8 | x8 | x8 | x8 | x8 | x8 | x8 |[M:3/4] x6 |] %39

